X: 24120
T: Longford Collector, The
R: reel
M: 4/4
K: Gmajor
GFGA BABd|eB B2 eBdB|G3A BABd|(3cBA BG AGED|
G3A Bcdg|eB B2 d2ef|gbaf gedB|AcBA GEDE||
g3f gedg|eB B2 d2ef|g2af gedB|AcBA GEDE|
gfga gedg|eB B2 d2 ef|gbaf gedB|AcBA GE D2||

